X:18663
T:When Sick Is It Tea You Want
M:6/8
L:1/8
K:D Major
B|Add dcB|AFB AFA|Add ede|fdB B2A|!
Add dcB|AFB AFA|dcd ede|fdd d2:|!
f|afd dcd|BGG G2g|bge ede|cAA AFG|!
Add dcB|AFB AFA|dcd ede|fdd d2:|!
